icons/1_Primary/British Computer Society.svg

<svg xmlns="http://www.w3.org/2000/svg" viewBox="0 0 1024 1024">
   <circle cx="512" cy="512" r="512" style="fill:#231f20"/>
   <path d="M557.29 677.18c.62 1.54.77 2.36.89 4.46h-15.57c.12-2.1.27-2.92.89-4.47 1.14-2.68 3.75-4.41 6.89-4.42 3.14 0 5.76 1.74 6.89 4.43ZM429.41 549.55c-1.14-2.68-3.75-4.41-6.89-4.42-3.15 0-5.76 1.74-6.89 4.42-.63 1.55-.77 2.37-.89 4.47h15.57c-.12-2.1-.27-2.92-.89-4.47Zm87.28 63.81c-1.14-2.68-3.75-4.42-6.89-4.42-3.14 0-5.76 1.74-6.89 4.42-.62 1.55-.77 2.36-.89 4.47h15.57c-.12-2.1-.27-2.92-.89-4.47Zm52.79-4.42c-3.14 0-5.75 1.74-6.89 4.42-.63 1.55-.77 2.36-.89 4.47h15.57c-.12-2.1-.27-2.92-.89-4.47-1.14-2.68-3.75-4.42-6.89-4.42ZM371.47 736.76c-2.12 0-3.96.78-5.34 2.16-2.11 2.07-2.43 5.88-2.41 9.43-.02 3.55.3 7.36 2.41 9.43 1.38 1.38 3.22 2.15 5.34 2.15 2.12 0 4.03-.79 5.4-2.15 2.11-2.07 2.37-5.87 2.35-9.43.02-3.56-.24-7.36-2.35-9.43-1.37-1.37-3.28-2.16-5.4-2.16Zm47.64-109.15c.08 3.36 1.74 4.73 6.72 4.83 2.72 0 4.88-.2 6.72-1.97.91-.84 1.43-2.48 1.43-5.07v-2.82h-8.34c-4.67.09-6.45 1.66-6.52 5.03ZM745.99 262v229.29c0 225.86-239.13 347.16-440.95 328.91V262h33.95v160.02c0 4.16 3.45 7.43 7.87 7.43h66.51c10.55 0 20.41-3.76 28.51-10.86 7.98-7.01 12.55-17.07 12.55-27.61v-38.14c0-10.53-4.46-20.33-12.55-27.6-7.78-7.01-17.91-10.87-28.51-10.87h-51.89v-52.36h384.51ZM436.48 606.61c-2.29-1.93-5.64-2.87-10.01-2.87-5.25-.03-8.84 1.11-11.79 4.98l-.35.45 4.12 3.79.41-.58c1.82-2.52 3.53-3.34 7.55-3.38 5.7.11 7.46 1.97 7.56 6.39v2.43h-8.99c-3.67 0-6.59.93-8.61 2.66-2.02 1.73-3.07 4.24-3.06 7.18 0 2.67.88 5.22 2.58 6.93 2.15 2.22 4.99 3.12 9.47 3.1 3.69.04 6.29-.69 8.6-2.64v2.25h5.92v-22.31c0-3.59-1.11-6.48-3.4-8.41Zm-27.72-49.69c0 5.75 1.41 10.01 3.98 12.84 2.57 2.84 6.27 4.15 10.6 4.15 5.53.03 8.86-1.8 12.13-5.12l.47-.47-4.12-3.62-.41.41c-2.5 2.47-4.36 3.43-7.94 3.46-5.6-.05-8.53-3.37-8.78-9.8h21.54v-2.76c0-4.84-1.24-8.86-3.61-11.69s-5.86-4.4-10.13-4.39c-4.21 0-7.71 1.59-10.09 4.54s-3.66 7.19-3.66 12.45Zm-33.58 16.6h5.92v-20.37c.06-5.26 2.83-7.75 7.37-7.82 4.53.07 7.1 2.46 7.17 7.82v20.37h5.92v-21.14c0-3.72-1.11-6.86-3.22-9.05-2.11-2.19-5.17-3.4-8.9-3.4-3.19 0-6.05.96-8.34 3.01v-16.91h-5.92v47.48ZM335.5 531.7h13.38v41.82h6.18V531.7h13.38v-5.66H335.5v5.66Zm18.46 185.64h-4c-2.87 0-5.11 1.03-6.57 2.72-1.47 1.69-2.17 3.99-2.17 6.47v5.41h-4.09v4.82h4.09v28.19h5.92v-28.19h6.82v-4.82h-6.82v-5.29c.09-2.76.97-3.98 3.67-4.06h3.15v-5.27Zm-12.38-16.2h5.56v-47.48h-6.18v47.48h.62Zm13.11-63.41c8.48 0 15.09-5.35 16.59-14.29l.12-.72h-6.17l-.11.49c-1.21 5.42-5 8.84-10.5 8.86-2.9 0-5.66-1.12-7.54-3.06-2.73-2.78-3.07-5.69-3.07-15.41 0-9.72.34-12.63 3.07-15.41 1.89-1.95 4.65-3.06 7.55-3.06 5.49.02 9.15 3.42 10.37 8.86l.11.49h6.31l-.13-.73c-1.57-8.96-8.07-14.31-16.65-14.28-4.7 0-9.03 1.75-12.26 4.99-4.55 4.55-4.54 9.39-4.53 19.14 0 9.75-.02 14.59 4.53 19.14 3.23 3.24 7.56 4.99 12.26 4.99h.06Zm1.39 63.41H362v-20.29c.07-5.34 2.77-7.82 7.3-7.89 4.53.07 7.16 2.47 7.23 7.89v20.29h5.92v-21.07c0-3.82-1.08-7.01-3.5-9.35-2.08-2.08-5.05-3.16-8.62-3.16-3.18 0-6.07 1-8.34 3.01v-2.62h-5.92v33.19Zm29.04 47.22c0-4.98-.65-9.66-4.07-13.16-2.32-2.32-5.55-3.83-9.6-3.82-4.05 0-7.29 1.5-9.6 3.82-3.43 3.51-4.08 8.19-4.08 13.17s.65 9.66 4.08 13.16c2.31 2.32 5.55 3.83 9.6 3.82 4.04 0 7.29-1.5 9.6-3.82l-.44-.44.44.43c3.43-3.5 4.07-8.19 4.07-13.16Zm7.76-139.2c4.53.07 7.1 2.46 7.17 7.82v20.37h5.92v-21.14c0-3.72-1.11-6.85-3.22-9.04-2.1-2.19-5.17-3.4-8.9-3.4-3.19 0-6.04.96-8.34 3.01v-16.9h-5.92v47.48h5.92v-20.37c.06-5.27 2.83-7.76 7.37-7.82Zm22.24 125.82-.44-.43c-2.37-2.39-4.96-3.18-8.1-3.17-3.21 0-6.29 1.15-8.34 3.18v-2.79h-5.92v33.2h5.92v-20.23c.04-4.63 2.74-7.93 7.04-7.95 2.38.03 3.35.48 5.08 2.16l.44.44.44-.45 3.87-3.95Zm1.05-43.8c.06-6.32-4.31-8.81-9.98-9.26l-5.13-.46c-3.91-.4-4.95-1.62-5.02-4.05.04-2.85 1.99-4.57 6.52-4.64 3.22 0 5.99.76 8.13 2.41l.43.33 3.92-3.93-.53-.44c-3.01-2.46-7.25-3.58-11.89-3.58-7 0-12.37 3.71-12.38 9.97-.06 5.58 3.74 8.74 10.12 9.19l5.26.45c3.57.4 4.69 1.56 4.76 4.06 0 3.29-2.71 4.97-7.88 5.03-3.86 0-7.1-1-9.49-3.51l-.44-.47-4.02 4.02.46.44c3.63 3.51 8.09 4.8 13.55 4.79 7.88 0 13.6-3.76 13.61-10.36Zm16.65 9.98h3.93v-5.27h-3.09c-2.7-.08-3.64-1.32-3.73-4.05v-18.86h6.82v-4.81h-6.82v-10h-5.92v10h-4.03v4.82H424v18.99c0 2.49.72 4.78 2.21 6.47 1.48 1.69 3.74 2.73 6.6 2.72Zm8.68 16.33h-6.18v47.48h6.18v-47.48Zm26.19-326.48c0 10.85 4.22 20.14 12.55 27.61 7.73 7.01 17.82 10.86 28.42 10.86h66.51c4.56 0 7.87-3.26 7.87-7.76v-6.97c0-4.49-3.31-7.76-7.87-7.76h-66.26c-10.68-.17-18.74-7.04-18.74-15.98v-38.14c0-9.56 9.62-15.99 18.6-15.99h66.4c4.49 0 7.87-3.34 7.87-7.76v-6.97c0-4.5-3.31-7.76-7.87-7.76h-66.51c-10.56 0-20.66 3.86-28.43 10.88-8.11 7.28-12.56 17.08-12.55 27.6v38.14Zm69.47 215.94v-2.79h-5.92v33.2h5.92v-20.23c.04-4.63 2.74-7.93 7.04-7.95 2.37.03 3.36.47 5.08 2.16l.44.44.44-.45 3.87-3.95-.44-.43c-2.37-2.39-4.96-3.18-8.1-3.17-3.21 0-6.29 1.15-8.34 3.18Zm-52.73 21.09v-18.86h6.82v-4.82h-6.82v-10h-5.92v10h-4.02v4.82h4.02v18.99c0 2.49.72 4.78 2.2 6.48 1.48 1.69 3.73 2.72 6.6 2.72h3.93v-5.27h-3.09c-2.7-.08-3.64-1.32-3.73-4.05Zm-17.08 63.81v-18.86h6.82v-4.81h-6.82v-10h-5.92v10h-4.03V673h4.03v18.99c0 2.49.72 4.78 2.2 6.47 1.48 1.69 3.74 2.73 6.61 2.72h3.93v-5.27h-3.09c-2.7-.08-3.64-1.32-3.73-4.05Zm-18.58-54.48h5.92v-20.23c.04-4.63 2.74-7.93 7.04-7.95 2.38.03 3.36.47 5.08 2.16l.44.44.44-.45 3.88-3.95-.43-.43c-2.37-2.39-4.96-3.18-8.11-3.17-3.21 0-6.29 1.15-8.34 3.18v-2.79h-5.92v33.2Zm-4.81 19.51c.16 4.73 7 4.73 7.16 0-.16-4.73-7-4.73-7.16 0Zm.59 44.29h5.92v-33.19h-5.92v33.19Zm37.29 16.33H448.9v5.66h13.38v41.82h6.18v-41.82h13.38v-5.66Zm26.24-49.52h-5.92v20.3c-.07 5.33-2.83 7.82-7.37 7.88-4.53-.07-7.09-2.46-7.17-7.88v-20.3h-5.92v21.01c0 3.8 1.01 7.06 3.44 9.41 2.08 2.08 5.12 3.16 8.68 3.16 3.19 0 6.13-1.05 8.4-3.07v2.69h5.86v-33.2Zm2.66-30.22c5.52 0 8.76-1.83 12.03-5.12l.47-.47-4.12-3.61-.41.41c-2.5 2.46-4.36 3.43-7.94 3.45-5.6-.06-8.53-3.37-8.78-9.8h21.55v-2.76c0-4.84-1.24-8.86-3.61-11.69-2.37-2.82-5.86-4.4-10.13-4.39-4.21 0-7.71 1.59-10.09 4.54s-3.65 7.18-3.65 12.44c0 5.75 1.41 10.01 3.98 12.84 2.57 2.83 6.27 4.16 10.61 4.15h.1Zm20.98 30.42h-6.82v-10h-5.92v10h-4.02V673h4.02v18.99c0 2.49.72 4.78 2.2 6.47 1.48 1.69 3.74 2.73 6.6 2.72h3.93v-5.27h-3.09c-2.7-.08-3.64-1.32-3.73-4.05V673h6.82v-4.81Zm32.4 15.49c0-4.84-1.24-8.86-3.61-11.68-2.37-2.82-5.86-4.4-10.13-4.39-4.21 0-7.71 1.59-10.09 4.54s-3.65 7.19-3.65 12.45c0 5.74 1.4 10.01 3.98 12.83 2.57 2.84 6.27 4.16 10.61 4.15 5.54.03 8.86-1.81 12.13-5.12l.47-.47-4.12-3.62-.41.41c-2.49 2.47-4.36 3.43-7.94 3.46-5.6-.05-8.53-3.37-8.78-9.79h21.55v-2.77Zm19.09-63.81c0-4.84-1.24-8.86-3.61-11.69-2.37-2.82-5.86-4.4-10.13-4.39-4.21 0-7.71 1.59-10.09 4.54-4.96 5.52-4.86 20.21.32 25.28 2.57 2.83 6.27 4.16 10.61 4.15 5.53.03 8.86-1.81 12.13-5.12l.47-.47-4.12-3.61-.41.41c-2.5 2.46-4.36 3.43-7.94 3.45-5.6-.06-8.54-3.37-8.78-9.8h21.54v-2.76Zm33.38-29.98h-5.92v16.97c-2.46-2.44-5.3-3.09-8.4-3.07-3.39 0-6.39 1.14-8.23 2.97-3.46 3.48-4.07 8.97-4.08 14.01.01 5.04.62 10.53 4.08 14.01 1.84 1.84 4.85 2.97 8.23 2.97 3.11.03 6-.69 8.47-3.18v2.78h5.86v-47.48Zm98.74-201.03c0-20.18-9.4-29.59-29.59-29.59h-60.69c-3.99 0-6.88-2.89-6.88-6.88v-8.62c0-3.99 2.89-6.88 6.88-6.88h78.96c4.42 0 7.76-3.34 7.76-7.76v-6.97c0-4.5-3.26-7.76-7.76-7.76h-78.74c-20.18 0-29.59 9.4-29.59 29.59v8.62c0 19.89 9.4 29.15 29.59 29.15h60.7c4.05 0 6.88 2.83 6.88 6.88v11.49c0 3.99-2.89 6.88-6.88 6.88h-80.32c-4.5 0-7.76 3.27-7.76 7.76v6.97c0 4.5 3.26 7.76 7.76 7.76h80.1c20.19 0 29.59-9.4 29.59-29.59v-11.05Zm-283.4 2.16v-38.14c0-9.87-9.73-15.99-18.74-15.99h-51.72v70.11h51.72c9.01 0 18.74-6.11 18.74-15.98ZM603.3 609.17c-6.41.01-7.36 5.32-7.43 11.59.07 6.27 1.02 11.57 7.43 11.59 3.3-.03 4.98-1.33 6.04-3.42 1.05-2.11 1.33-5.08 1.32-8.17 0-3.08-.27-6.06-1.32-8.17-1.07-2.09-2.75-3.39-6.04-3.42Z" style="fill:#fff"/>
</svg>

<svg width="1024" height="1024" viewBox="0 0 1024 1024" fill="none" xmlns="http://www.w3.org/2000/svg">
<g clip-path="url(#clip0_2_1731)">
<path d="M512 1024C794.77 1024 1024 794.77 1024 512C1024 229.23 794.77 0 512 0C229.23 0 0 229.23 0 512C0 794.77 229.23 1024 512 1024Z" fill="#56595B"/>
<path d="M557.29 677.18C557.91 678.72 558.06 679.54 558.18 681.64H542.61C542.73 679.54 542.88 678.72 543.5 677.17C544.64 674.49 547.25 672.76 550.39 672.75C553.53 672.75 556.15 674.49 557.28 677.18H557.29ZM429.41 549.55C428.27 546.87 425.66 545.14 422.52 545.13C419.37 545.13 416.76 546.87 415.63 549.55C415 551.1 414.86 551.92 414.74 554.02H430.31C430.19 551.92 430.04 551.1 429.42 549.55H429.41ZM516.69 613.36C515.55 610.68 512.94 608.94 509.8 608.94C506.66 608.94 504.04 610.68 502.91 613.36C502.29 614.91 502.14 615.72 502.02 617.83H517.59C517.47 615.73 517.32 614.91 516.7 613.36H516.69ZM569.48 608.94C566.34 608.94 563.73 610.68 562.59 613.36C561.96 614.91 561.82 615.72 561.7 617.83H577.27C577.15 615.73 577 614.91 576.38 613.36C575.24 610.68 572.63 608.94 569.49 608.94H569.48ZM371.47 736.76C369.35 736.76 367.51 737.54 366.13 738.92C364.02 740.99 363.7 744.8 363.72 748.35C363.7 751.9 364.02 755.71 366.13 757.78C367.51 759.16 369.35 759.93 371.47 759.93C373.59 759.93 375.5 759.14 376.87 757.78C378.98 755.71 379.24 751.91 379.22 748.35C379.24 744.79 378.98 740.99 376.87 738.92C375.5 737.55 373.59 736.76 371.47 736.76ZM419.11 627.61C419.19 630.97 420.85 632.34 425.83 632.44C428.55 632.44 430.71 632.24 432.55 630.47C433.46 629.63 433.98 627.99 433.98 625.4V622.58H425.64C420.97 622.67 419.19 624.24 419.12 627.61H419.11ZM745.99 262V491.29C745.99 717.15 506.86 838.45 305.04 820.2V262H338.99V422.02C338.99 426.18 342.44 429.45 346.86 429.45H413.37C423.92 429.45 433.78 425.69 441.88 418.59C449.86 411.58 454.43 401.52 454.43 390.98V352.84C454.43 342.31 449.97 332.51 441.88 325.24C434.1 318.23 423.97 314.37 413.37 314.37H361.48V262.01H745.99V262ZM436.48 606.61C434.19 604.68 430.84 603.74 426.47 603.74C421.22 603.71 417.63 604.85 414.68 608.72L414.33 609.17L418.45 612.96L418.86 612.38C420.68 609.86 422.39 609.04 426.41 609C432.11 609.11 433.87 610.97 433.97 615.39V617.82H424.98C421.31 617.82 418.39 618.75 416.37 620.48C414.35 622.21 413.3 624.72 413.31 627.66C413.31 630.33 414.19 632.88 415.89 634.59C418.04 636.81 420.88 637.71 425.36 637.69C429.05 637.73 431.65 637 433.96 635.05V637.3H439.88V614.99C439.88 611.4 438.77 608.51 436.48 606.58V606.61ZM408.76 556.92C408.76 562.67 410.17 566.93 412.74 569.76C415.31 572.6 419.01 573.91 423.34 573.91C428.87 573.94 432.2 572.11 435.47 568.79L435.94 568.32L431.82 564.7L431.41 565.11C428.91 567.58 427.05 568.54 423.47 568.57C417.87 568.52 414.94 565.2 414.69 558.77H436.23V556.01C436.23 551.17 434.99 547.15 432.62 544.32C430.25 541.49 426.76 539.92 422.49 539.93C418.28 539.93 414.78 541.52 412.4 544.47C410.02 547.42 408.74 551.66 408.74 556.92H408.76ZM375.18 573.52H381.1V553.15C381.16 547.89 383.93 545.4 388.47 545.33C393 545.4 395.57 547.79 395.64 553.15V573.52H401.56V552.38C401.56 548.66 400.45 545.52 398.34 543.33C396.23 541.14 393.17 539.93 389.44 539.93C386.25 539.93 383.39 540.89 381.1 542.94V526.03H375.18V573.51V573.52ZM335.5 531.7H348.88V573.52H355.06V531.7H368.44V526.04H335.5V531.7ZM353.96 717.34H349.96C347.09 717.34 344.85 718.37 343.39 720.06C341.92 721.75 341.22 724.05 341.22 726.53V731.94H337.13V736.76H341.22V764.95H347.14V736.76H353.96V731.94H347.14V726.65C347.23 723.89 348.11 722.67 350.81 722.59H353.96V717.32V717.34ZM341.58 701.14H347.14V653.66H340.96V701.14H341.58ZM354.69 637.73C363.17 637.73 369.78 632.38 371.28 623.44L371.4 622.72H365.23L365.12 623.21C363.91 628.63 360.12 632.05 354.62 632.07C351.72 632.07 348.96 630.95 347.08 629.01C344.35 626.23 344.01 623.32 344.01 613.6C344.01 603.88 344.35 600.97 347.08 598.19C348.97 596.24 351.73 595.13 354.63 595.13C360.12 595.15 363.78 598.55 365 603.99L365.11 604.48H371.42L371.29 603.75C369.72 594.79 363.22 589.44 354.64 589.47C349.94 589.47 345.61 591.22 342.38 594.46C337.83 599.01 337.84 603.85 337.85 613.6C337.85 623.35 337.83 628.19 342.38 632.74C345.61 635.98 349.94 637.73 354.64 637.73H354.7H354.69ZM356.08 701.14H362V680.85C362.07 675.51 364.77 673.03 369.3 672.96C373.83 673.03 376.46 675.43 376.53 680.85V701.14H382.45V680.07C382.45 676.25 381.37 673.06 378.95 670.72C376.87 668.64 373.9 667.56 370.33 667.56C367.15 667.56 364.26 668.56 361.99 670.57V667.95H356.07V701.14H356.08ZM385.12 748.36C385.12 743.38 384.47 738.7 381.05 735.2C378.73 732.88 375.5 731.37 371.45 731.38C367.4 731.38 364.16 732.88 361.85 735.2C358.42 738.71 357.77 743.39 357.77 748.37C357.77 753.35 358.42 758.03 361.85 761.53C364.16 763.85 367.4 765.36 371.45 765.35C375.49 765.35 378.74 763.85 381.05 761.53L380.61 761.09L381.05 761.52C384.48 758.02 385.12 753.33 385.12 748.36ZM392.88 609.16C397.41 609.23 399.98 611.62 400.05 616.98V637.35H405.97V616.21C405.97 612.49 404.86 609.36 402.75 607.17C400.65 604.98 397.58 603.77 393.85 603.77C390.66 603.77 387.81 604.73 385.51 606.78V589.88H379.59V637.36H385.51V616.99C385.57 611.72 388.34 609.23 392.88 609.17V609.16ZM415.12 734.98L414.68 734.55C412.31 732.16 409.72 731.37 406.58 731.38C403.37 731.38 400.29 732.53 398.24 734.56V731.77H392.32V764.97H398.24V744.74C398.28 740.11 400.98 736.81 405.28 736.79C407.66 736.82 408.63 737.27 410.36 738.95L410.8 739.39L411.24 738.94L415.11 734.99L415.12 734.98ZM416.17 691.18C416.23 684.86 411.86 682.37 406.19 681.92L401.06 681.46C397.15 681.06 396.11 679.84 396.04 677.41C396.08 674.56 398.03 672.84 402.56 672.77C405.78 672.77 408.55 673.53 410.69 675.18L411.12 675.51L415.04 671.58L414.51 671.14C411.5 668.68 407.26 667.56 402.62 667.56C395.62 667.56 390.25 671.27 390.24 677.53C390.18 683.11 393.98 686.27 400.36 686.72L405.62 687.17C409.19 687.57 410.31 688.73 410.38 691.23C410.38 694.52 407.67 696.2 402.5 696.26C398.64 696.26 395.4 695.26 393.01 692.75L392.57 692.28L388.55 696.3L389.01 696.74C392.64 700.25 397.1 701.54 402.56 701.53C410.44 701.53 416.16 697.77 416.17 691.17V691.18ZM432.82 701.16H436.75V695.89H433.66C430.96 695.81 430.02 694.57 429.93 691.84V672.98H436.75V668.17H429.93V658.17H424.01V668.17H419.98V672.99H424V691.98C424 694.47 424.72 696.76 426.21 698.45C427.69 700.14 429.95 701.18 432.81 701.17L432.82 701.16ZM441.5 717.49H435.32V764.97H441.5V717.49ZM467.69 391.01C467.69 401.86 471.91 411.15 480.24 418.62C487.97 425.63 498.06 429.48 508.66 429.48H575.17C579.73 429.48 583.04 426.22 583.04 421.72V414.75C583.04 410.26 579.73 406.99 575.17 406.99H508.91C498.23 406.82 490.17 399.95 490.17 391.01V352.87C490.17 343.31 499.79 336.88 508.77 336.88H575.17C579.66 336.88 583.04 333.54 583.04 329.12V322.15C583.04 317.65 579.73 314.39 575.17 314.39H508.66C498.1 314.39 488 318.25 480.23 325.27C472.12 332.55 467.67 342.35 467.68 352.87V391.01H467.69ZM537.16 606.95V604.16H531.24V637.36H537.16V617.13C537.2 612.5 539.9 609.2 544.2 609.18C546.57 609.21 547.56 609.65 549.28 611.34L549.72 611.78L550.16 611.33L554.03 607.38L553.59 606.95C551.22 604.56 548.63 603.77 545.49 603.78C542.28 603.78 539.2 604.93 537.15 606.96L537.16 606.95ZM484.43 628.04V609.18H491.25V604.36H484.43V594.36H478.51V604.36H474.49V609.18H478.51V628.17C478.51 630.66 479.23 632.95 480.71 634.65C482.19 636.34 484.44 637.37 487.31 637.37H491.24V632.1H488.15C485.45 632.02 484.51 630.78 484.42 628.05L484.43 628.04ZM467.35 691.85V672.99H474.17V668.18H467.35V658.18H461.43V668.18H457.4V673H461.43V691.99C461.43 694.48 462.15 696.77 463.63 698.46C465.11 700.15 467.37 701.19 470.24 701.18H474.17V695.91H471.08C468.38 695.83 467.44 694.59 467.35 691.86V691.85ZM448.77 637.37H454.69V617.14C454.73 612.51 457.43 609.21 461.73 609.19C464.11 609.22 465.09 609.66 466.81 611.35L467.25 611.79L467.69 611.34L471.57 607.39L471.14 606.96C468.77 604.57 466.18 603.78 463.03 603.79C459.82 603.79 456.74 604.94 454.69 606.97V604.18H448.77V637.38V637.37ZM443.96 656.88C444.12 661.61 450.96 661.61 451.12 656.88C450.96 652.15 444.12 652.15 443.96 656.88ZM444.55 701.17H450.47V667.98H444.55V701.17ZM481.84 717.5H448.9V723.16H462.28V764.98H468.46V723.16H481.84V717.5ZM508.08 667.98H502.16V688.28C502.09 693.61 499.33 696.1 494.79 696.16C490.26 696.09 487.7 693.7 487.62 688.28V667.98H481.7V688.99C481.7 692.79 482.71 696.05 485.14 698.4C487.22 700.48 490.26 701.56 493.82 701.56C497.01 701.56 499.95 700.51 502.22 698.49V701.18H508.08V667.98ZM510.74 637.76C516.26 637.76 519.5 635.93 522.77 632.64L523.24 632.17L519.12 628.56L518.71 628.97C516.21 631.43 514.35 632.4 510.77 632.42C505.17 632.36 502.24 629.05 501.99 622.62H523.54V619.86C523.54 615.02 522.3 611 519.93 608.17C517.56 605.35 514.07 603.77 509.8 603.78C505.59 603.78 502.09 605.37 499.71 608.32C497.33 611.27 496.06 615.5 496.06 620.76C496.06 626.51 497.47 630.77 500.04 633.6C502.61 636.43 506.31 637.76 510.65 637.75H510.75L510.74 637.76ZM531.72 668.18H524.9V658.18H518.98V668.18H514.96V673H518.98V691.99C518.98 694.48 519.7 696.77 521.18 698.46C522.66 700.15 524.92 701.19 527.78 701.18H531.71V695.91H528.62C525.92 695.83 524.98 694.59 524.89 691.86V673H531.71V668.19L531.72 668.18ZM564.12 683.67C564.12 678.83 562.88 674.81 560.51 671.99C558.14 669.17 554.65 667.59 550.38 667.6C546.17 667.6 542.67 669.19 540.29 672.14C537.91 675.09 536.64 679.33 536.64 684.59C536.64 690.33 538.04 694.6 540.62 697.42C543.19 700.26 546.89 701.58 551.23 701.57C556.77 701.6 560.09 699.76 563.36 696.45L563.83 695.98L559.71 692.36L559.3 692.77C556.81 695.24 554.94 696.2 551.36 696.23C545.76 696.18 542.83 692.86 542.58 686.44H564.13V683.67H564.12ZM583.21 619.86C583.21 615.02 581.97 611 579.6 608.17C577.23 605.35 573.74 603.77 569.47 603.78C565.26 603.78 561.76 605.37 559.38 608.32C554.42 613.84 554.52 628.53 559.7 633.6C562.27 636.43 565.97 637.76 570.31 637.75C575.84 637.78 579.17 635.94 582.44 632.63L582.91 632.16L578.79 628.55L578.38 628.96C575.88 631.42 574.02 632.39 570.44 632.41C564.84 632.35 561.9 629.04 561.66 622.61H583.2V619.85L583.21 619.86ZM616.59 589.88H610.67V606.85C608.21 604.41 605.37 603.76 602.27 603.78C598.88 603.78 595.88 604.92 594.04 606.75C590.58 610.23 589.97 615.72 589.96 620.76C589.97 625.8 590.58 631.29 594.04 634.77C595.88 636.61 598.89 637.74 602.27 637.74C605.38 637.77 608.27 637.05 610.74 634.56V637.34H616.6V589.86L616.59 589.88ZM715.33 388.85C715.33 368.67 705.93 359.26 685.74 359.26H625.05C621.06 359.26 618.17 356.37 618.17 352.38V343.76C618.17 339.77 621.06 336.88 625.05 336.88H704.01C708.43 336.88 711.77 333.54 711.77 329.12V322.15C711.77 317.65 708.51 314.39 704.01 314.39H625.27C605.09 314.39 595.68 323.79 595.68 343.98V352.6C595.68 372.49 605.08 381.75 625.27 381.75H685.97C690.02 381.75 692.85 384.58 692.85 388.63V400.12C692.85 404.11 689.96 407 685.97 407H605.65C601.15 407 597.89 410.27 597.89 414.76V421.73C597.89 426.23 601.15 429.49 605.65 429.49H685.75C705.94 429.49 715.34 420.09 715.34 399.9V388.85H715.33ZM431.93 391.01V352.87C431.93 343 422.2 336.88 413.19 336.88H361.47V406.99H413.19C422.2 406.99 431.93 400.88 431.93 391.01ZM603.3 609.17C596.89 609.18 595.94 614.49 595.87 620.76C595.94 627.03 596.89 632.33 603.3 632.35C606.6 632.32 608.28 631.02 609.34 628.93C610.39 626.82 610.67 623.85 610.66 620.76C610.66 617.68 610.39 614.7 609.34 612.59C608.27 610.5 606.59 609.2 603.3 609.17Z" fill="white"/>
</g>
<defs>
<clipPath id="clip0_2_1731">
<rect width="1024" height="1024" fill="white"/>
</clipPath>
</defs>
</svg>
